assets/svg/networks/wallet_binance.svg

<svg width="36" height="36" viewBox="0 0 36 36" fill="none" xmlns="http://www.w3.org/2000/svg">
<g clip-path="url(#clip0_20131_23543)">
<rect width="36" height="36" rx="10" fill="#F3BA2F"/>
<path d="M13.6305 16.2045L18 11.835L22.3717 16.2067L24.9142 13.6642L18 6.75L11.088 13.662L13.6305 16.2045ZM6.75 18L9.2925 15.4575L11.835 18L9.2925 20.5425L6.75 18ZM13.6305 19.7955L18 24.165L22.3717 19.7933L24.9142 22.3346L18 29.25L11.088 22.338L11.0846 22.3346L13.6305 19.7955ZM24.165 18L26.7075 15.4575L29.25 18L26.7075 20.5425L24.165 18ZM20.5785 17.9978H20.5808V18L18 20.5808L15.4226 18.0045L15.4181 18L15.4226 17.9966L15.8737 17.5444L16.0931 17.325L18 15.4193L20.5796 17.9989L20.5785 17.9978Z" fill="white"/>
</g>
<defs>
<clipPath id="clip0_20131_23543">
<rect width="36" height="36" fill="white"/>
</clipPath>
</defs>
</svg>

<svg xmlns="http://www.w3.org/2000/svg" width="36" height="36" fill="none"><g clip-path="url(#a)"><rect width="36" height="36" fill="#F3BA2F" rx="10"/><path fill="#fff" d="m13.63 16.205 4.37-4.37 4.372 4.372 2.542-2.543L18 6.75l-6.912 6.912zM6.75 18l2.543-2.543L11.835 18l-2.543 2.543zm6.88 1.796L18 24.165l4.372-4.372 2.542 2.542L18 29.25l-6.912-6.912-.003-.003zM24.166 18l2.543-2.543L29.25 18l-2.543 2.543zm-3.587-.002h.003V18L18 20.58l-2.577-2.575-.005-.005.005-.003.45-.453.22-.219L18 15.419 20.58 18z"/></g><defs><clipPath id="a"><path fill="#fff" d="M0 0h36v36H0z"/></clipPath></defs></svg>
